flaticon/hand-gestures/tap-38.svg

<svg xmlns="http://www.w3.org/2000/svg" width="32" height="32" viewBox="0 0 24 24">
    <path d="M8.183594 6.480469C8.824219 5.921875 9.304688 5.160156 9.503906 4.359375 9.625 3.800781 9.582031 3.480469 9.582031 3.359375 9.421875 1.878906 8.261719.800781 6.824219.800781 5.941406.800781 5.222656 1.320312 4.742188 1.960938 4.261719 1.320312 3.542969.800781 2.664062.800781 1.261719.800781.183594 1.839844.0234375 3.359375.0234375 3.480469-.015625 3.800781.101562 4.359375.304688 5.160156.785156 5.921875 1.421875 6.480469L4.464844 9.078125C4.582031 9.160156 4.664062 9.199219 4.785156 9.199219 4.902344 9.199219 5.023438 9.160156 5.144531 9.078125zM1.984375 5.878906C1.421875 5.398438 1.0625 4.800781.902344 4.160156.78125 3.71875.824219 3.480469.824219 3.480469.902344 2.519531 1.503906 1.601562 2.664062 1.601562 3.464844 1.601562 4.101562 2.238281 4.382812 2.878906L4.742188 3.71875 5.101562 2.878906C5.382812 2.238281 6.023438 1.601562 6.824219 1.601562 7.824219 1.601562 8.664062 2.398438 8.78125 3.480469 8.78125 3.480469 8.824219 3.71875 8.742188 4.160156 8.582031 4.800781 8.222656 5.398438 7.664062 5.878906L4.824219 8.28125zM14.382812 4.800781C11.941406 4.800781 9.984375 6.761719 9.984375 9.199219L9.984375 13.601562 18.78125 13.601562 18.78125 9.199219C18.78125 6.761719 16.824219 4.800781 14.382812 4.800781zM17.984375 12.800781L10.785156 12.800781 10.785156 9.199219C10.785156 7.199219 12.382812 5.601562 14.382812 5.601562 16.382812 5.601562 17.984375 7.199219 17.984375 9.199219zM18.382812 16.398438L10.382812 16.398438C10.144531 16.398438 9.984375 16.558594 9.984375 16.800781 9.984375 17.039062 10.144531 17.199219 10.382812 17.199219L18.382812 17.199219C18.625 17.199219 18.78125 17.039062 18.78125 16.800781 18.78125 16.558594 18.625 16.398438 18.382812 16.398438zM18.382812 18L10.382812 18C10.144531 18 9.984375 18.160156 9.984375 18.398438 9.984375 18.640625 10.144531 18.800781 10.382812 18.800781L18.382812 18.800781C18.625 18.800781 18.78125 18.640625 18.78125 18.398438 18.78125 18.160156 18.625 18 18.382812 18zM18.382812 18"/>
    <path d="M 23.984375 9.601562 C 23.984375 4.320312 19.664062 0 14.382812 0 C 12.785156 0 11.183594 0.398438 9.785156 1.160156 C 9.582031 1.28125 9.503906 1.519531 9.625 1.71875 C 9.742188 1.921875 9.984375 2 10.183594 1.878906 C 11.464844 1.160156 12.902344 0.800781 14.382812 0.800781 C 19.222656 0.800781 23.183594 4.761719 23.183594 9.601562 C 23.183594 12.078125 22.183594 14.363281 20.382812 16.023438 L 20.382812 9.199219 C 20.382812 5.878906 17.703125 3.199219 14.382812 3.199219 C 11.0625 3.199219 8.382812 5.878906 8.382812 9.199219 L 8.382812 16.023438 C 6.796875 14.558594 5.800781 12.523438 5.625 10.359375 C 5.664062 10.160156 5.542969 9.921875 5.34375 9.878906 C 5.144531 9.800781 4.902344 9.960938 4.863281 10.160156 L 4.824219 10.28125 L 4.824219 10.359375 C 5.019531 12.972656 6.316406 15.433594 8.382812 17.074219 L 8.382812 18 C 8.382812 21.320312 11.0625 24 14.382812 24 C 17.703125 24 20.382812 21.320312 20.382812 18 L 20.382812 17.074219 C 22.683594 15.234375 23.984375 12.53125 23.984375 9.601562 Z M 14.382812 23.199219 C 11.503906 23.199219 9.183594 20.878906 9.183594 18 L 9.183594 9.199219 C 9.183594 6.320312 11.503906 4 14.382812 4 C 17.261719 4 19.582031 6.320312 19.582031 9.199219 L 19.582031 16.824219 C 19.582031 16.851562 19.582031 16.878906 19.582031 16.90625 L 19.582031 18 C 19.582031 20.878906 17.261719 23.199219 14.382812 23.199219 Z M 14.382812 23.199219"/>
</svg>

<svg xmlns="http://www.w3.org/2000/svg" width="32" height="32" viewBox="0 0 24 24">
    <path d="M8.184 6.48c.64-.558 1.12-1.32 1.32-2.12.121-.56.078-.88.078-1C9.422 1.878 8.262.8 6.824.8c-.883 0-1.601.52-2.082 1.16C4.262 1.32 3.543.8 2.664.8 1.262.8.184 1.84.024 3.36c0 .12-.04.44.078 1 .203.8.683 1.562 1.32 2.12l3.043 2.598c.117.082.2.121.32.121.117 0 .238-.039.36-.12zm-6.2-.601A3.306 3.306 0 0 1 .902 4.16c-.12-.441-.078-.68-.078-.68.078-.96.68-1.878 1.84-1.878.8 0 1.438.636 1.719 1.277l.36.84.359-.84c.28-.64.921-1.277 1.722-1.277 1 0 1.84.796 1.957 1.878 0 0 .043.239-.039.68-.16.64-.52 1.238-1.078 1.719L4.824 8.28zm0 0M14.383 4.8a4.385 4.385 0 0 0-4.399 4.4v4.402h8.797V9.199a4.385 4.385 0 0 0-4.398-4.398zm3.601 8h-7.199V9.2c0-2 1.598-3.598 3.598-3.598 2 0 3.601 1.597 3.601 3.597zm0 0M18.383 16.398h-8c-.238 0-.399.16-.399.403 0 .238.16.398.399.398h8c.242 0 .398-.16.398-.398 0-.242-.156-.403-.398-.403zm0 0M18.383 18h-8c-.238 0-.399.16-.399.398 0 .243.16.403.399.403h8c.242 0 .398-.16.398-.403 0-.238-.156-.398-.398-.398zm0 0"/>
    <path d="M23.984 9.602C23.984 4.32 19.664 0 14.383 0c-1.598 0-3.2.398-4.598 1.16-.203.121-.281.36-.16.559.117.203.36.281.559.16A8.541 8.541 0 0 1 14.383.8c4.84 0 8.8 3.96 8.8 8.8 0 2.477-1 4.762-2.8 6.422V9.2c0-3.32-2.68-6-6-6s-6 2.68-6 6v6.824a8.7 8.7 0 0 1-2.758-5.664c.04-.199-.082-.437-.281-.48-.2-.078-.442.082-.48.281l-.04.121v.078a9.524 9.524 0 0 0 3.559 6.715V18c0 3.32 2.68 6 6 6s6-2.68 6-6v-.926c2.3-1.84 3.601-4.543 3.601-7.472zm-9.601 13.597A5.19 5.19 0 0 1 9.183 18V9.2a5.19 5.19 0 0 1 5.2-5.2 5.19 5.19 0 0 1 5.199 5.2V18a5.19 5.19 0 0 1-5.2 5.2zm0 0"/>
</svg>
